X: 26076
T: McDermott's
R: hornpipe
M: 4/4
K: Dmajor
gfe|dcdA FABA|GFGE CDEF|EFGA ~B2cd|(3efe (3dcB Agfe|
dcdA FABA|GFGE CDEF|EFGA ~B2cd|(3efe dc dgfe||
dcdA FABA|GFGE CDEF|EFGA ~B2cd|(3efe (3dcB (3ABA (3GFE|
DFdA FdAF|GFGE CDEF|EFGA ~B2cd|(3efe dc d2 AG||
(3FGA dA (3FGA dA|(3FGA dA ~G2 G=F|E=c~c2 Ec~c2|E=c~c2 [C2A2] AG|
(3FGA dA (3FGA dA|(3FGA dA ~G3A|Bged cAcd|(3efe dc d2AG||
(3FGA dA (3FGA dA|(3FGA dA GA=FG|E=c~c2 Ec~c2|E=c~c2 [C2A2] AG|
(3FGA dA (3FGA dA|(3FGA dA ~G3A|Bged cAcd|(3efe dc dgfe||
dcdA (=F^F)BA|GFGE CDEF|EFGA ~B2cd|(3efe (3dcB (3ABA (3GFE|
DFdA FdAF|GFGE CDEF|EFGA B2cd|(3efe dc d2 [F2c2]||
[Fd]cdA FdAF|GFGE CDEF|EFGA ~B2cd|(3efe (3dB^G Agfe|
dcdA FABA|GFGE CDEF|EFGA ~B2cd|(3efe dc d2 AG||
(3FGA dA (3FGA dA|(3FGA dA GA=FG|E=c~c2 [E2c2]~c2|[E2c2]~c2 [C2A2] AG|
(3FGA dA (3FGA dA|FdAF ~G2 GA|Bged cAcd|(3efe dc d2B2||
AFdF AFdF|AFdF AFD=F|~E2 =cE dEcE|~E2 =cE [CA]A AG|
(3FGA dA (3FGA dA|(3FGA dA ~G3A|Bged cAcd|(3efe dc d4||

